dist/svgs/devui-icons/code-editor/code-editor-dark.svg

<?xml version="1.0" encoding="UTF-8"?>
<svg width="16px" height="16px" viewBox="0 0 16 16" version="1.1" xmlns="http://www.w3.org/2000/svg" xmlns:xlink="http://www.w3.org/1999/xlink">
    <!-- Generator: Sketch 52.2 (67145) - http://www.bohemiancoding.com/sketch -->
    <title>icon_dark</title>
    <desc>Created with Sketch.</desc>
    <g id="icon_dark" stroke="none" stroke-width="1" fill="none" fill-rule="evenodd">
        <path d="M8,5.6 C6.6745166,5.6 5.6,6.6745166 5.6,8 C5.6,9.3254834 6.6745166,10.4 8,10.4 L8,5.6 Z M8,11 C6.34314575,11 5,9.65685425 5,8 C5,6.34314575 6.34314575,5 8,5 C9.65685425,5 11,6.34314575 11,8 C11,9.65685425 9.65685425,11 8,11 Z M7.5,3 L8.5,3 L8.5,4 L7.5,4 L7.5,3 Z M11.1819805,4.1109127 L11.8890873,4.81801948 L11.1819805,5.52512627 L10.4748737,4.81801948 L11.1819805,4.1109127 Z M13,7.5 L13,8.5 L12,8.5 L12,7.5 L13,7.5 Z M11.8890873,11.1819805 L11.1819805,11.8890873 L10.4748737,11.1819805 L11.1819805,10.4748737 L11.8890873,11.1819805 Z M8.5,13 L7.5,13 L7.5,12 L8.5,12 L8.5,13 Z M4.81801948,11.8890873 L4.1109127,11.1819805 L4.81801948,10.4748737 L5.52512627,11.1819805 L4.81801948,11.8890873 Z M3,8.5 L3,7.5 L4,7.5 L4,8.5 L3,8.5 Z M4.1109127,4.81801948 L4.81801948,4.1109127 L5.52512627,4.81801948 L4.81801948,5.52512627 L4.1109127,4.81801948 Z" id="Shape" fill="#293040"></path>
    </g>
</svg>

<svg xmlns="http://www.w3.org/2000/svg" viewBox="0 0 16 16"><path fill-rule="evenodd" d="M8 5.6a2.4 2.4 0 100 4.8V5.6zM8 11a3 3 0 110-6 3 3 0 010 6zm-.5-8h1v1h-1V3zm3.682 1.11l.707.708-.707.707-.707-.707.707-.707zM13 7.5v1h-1v-1h1zm-1.11 3.682l-.708.707-.707-.707.707-.707.707.707zM8.5 13h-1v-1h1v1zm-3.682-1.11l-.707-.708.707-.707.707.707-.707.707zM3 8.5v-1h1v1H3zm1.11-3.682l.708-.707.707.707-.707.707-.707-.707z"/></svg>
